!!!OTL: 122. Der verbundene Mann (= Dienstmann).
!!!ODT: 1850
!!!ARE: Europa, Mitteleuropa, Deutschland, Niederrhein, Lobberich
!!!SCT: E0122A
!!!TXL: @@DE
!!!YEM: Copyright 1995, estate of Helmut Schaffrath.
**kern	**text
*ICvox	*
*M4/4	*
*met(c)	*
*k[b-]	*
*d:	*
!LO:TX:a:t=Männer	!
!LO:TX:a:t=Mel. aus Lobberich 1850.	!
{4c	Es
=1	=1
4f	wollt
4f	ein
8aL	Jung-
8gJ	.
8fL	-magd
8gJ	.
=2	=2
4a	früh
8aL	auf-
8gJ	.
4f}	-ſtehn,
!LO:TX:a:t=Weiber	!
{4a	es
=3	=3
4b-/	wollt
4a	ein
8aL	Jung-
8gJ	.
8fL	-magd
8gJ	.
=4	=4
4a	früh
8aL	auf-
8gJ	.
4f}	-ſtehn,
!LO:TX:a:t=Männer	!
{4c	ſie
=5	=5
4.f	ſollt
8g	ʒur
4a	Wie-
8fL	-ſe
8aJ	.
=6	=6
8gL	mä-
8fJ	.
4e	-hen
4d;}	gehn.
!LO:TX:a:t=Weiber	!
{4c	ſie
=7	=7
4.f	ſollt
8g	ʒur
4a	Wie-
8fL	-ſe
8aJ	.
=8	=8
8g	mä-
8f	.
4e	-hen
4d;}	gehn.
==	==
!!!AGN: erzaehlendes Volks - Lied, Schalk -, Schelmen - Lied, Liebe, Ballade ?
!!!ONB: ESAC (Essen Associative Code) Database: ERK1
!!!AMT: simple quadruple
!!!AIN: vox
!!!EED: Helmut Schaffrath
!!!EEV: 1.0
!!!GTL: Schalks- und Schlemenlieder (Liebesabenteuer und betrogene Liebe)
!!!URL-scan: https://rosdok.uni-rostock.de/mcrviewer/recordIdentifier/rosdok_ppn745146120/iview2/phys_0499.iview2?x=-422.27491384562836&y=115.74102217634209&scale=0.554360769283424&rotation=0&layout=singlePageLayout
!!!ENC: Anna Maria Matuszewska
!!!EEV: 2024/03/12
*-	*-
